Simply-Orange-Circles/scalable/apps/gnome-palm.svg

<?xml version="1.0" encoding="UTF-8" standalone="no"?>
<svg
   xmlns:dc="http://purl.org/dc/elements/1.1/"
   xmlns:cc="http://creativecommons.org/ns#"
   xmlns:rdf="http://www.w3.org/1999/02/22-rdf-syntax-ns#"
   xmlns:svg="http://www.w3.org/2000/svg"
   xmlns="http://www.w3.org/2000/svg"
   xmlns:sodipodi="http://sodipodi.sourceforge.net/DTD/sodipodi-0.dtd"
   xmlns:inkscape="http://www.inkscape.org/namespaces/inkscape"
   width="48"
   height="48"
   viewBox="0 0 12.7 12.7"
   version="1.1"
   id="svg4"
   sodipodi:docname="gnome-palm.svg"
   inkscape:version="0.92.4 (5da689c313, 2019-01-14)">
  <metadata
     id="metadata10">
    <rdf:RDF>
      <cc:Work
         rdf:about="">
        <dc:format>image/svg+xml</dc:format>
        <dc:type
           rdf:resource="http://purl.org/dc/dcmitype/StillImage" />
        <dc:title></dc:title>
      </cc:Work>
    </rdf:RDF>
  </metadata>
  <defs
     id="defs8" />
  <sodipodi:namedview
     pagecolor="#ffffff"
     bordercolor="#666666"
     borderopacity="1"
     objecttolerance="10"
     gridtolerance="10"
     guidetolerance="10"
     inkscape:pageopacity="0"
     inkscape:pageshadow="2"
     inkscape:window-width="1087"
     inkscape:window-height="480"
     id="namedview6"
     showgrid="false"
     inkscape:zoom="4.9166667"
     inkscape:cx="2.1355932"
     inkscape:cy="24"
     inkscape:window-x="0"
     inkscape:window-y="25"
     inkscape:window-maximized="0"
     inkscape:current-layer="svg4" />
  <path
     d="m 6.344,0.072 a 6.29,6.29 0 0 0 -6.29,6.29 6.29,6.29 0 0 0 6.29,6.289 6.29,6.29 0 0 0 6.29,-6.29 6.29,6.29 0 0 0 -6.29,-6.29 z M 6.326,1.009 A 5.407,5.407 0 0 1 11.733,6.416 5.407,5.407 0 0 1 6.326,11.823 5.407,5.407 0 0 1 0.92,6.416 5.407,5.407 0 0 1 6.326,1.01 Z M 3.73,2.353 c -0.152,0 -0.274,0.13 -0.274,0.293 V 9.64 c 0,0.162 0.123,0.292 0.275,0.292 0,0 1.31,0.414 2.621,0.414 1.31,0 2.62,-0.414 2.62,-0.414 0.153,0 0.276,-0.13 0.276,-0.292 V 2.646 C 9.248,2.484 9.125,2.353 8.973,2.353 Z m 0.61,0.599 h 4.024 c 0.158,0 0.286,0.128 0.286,0.286 V 8.26 A 0.285,0.285 0 0 1 8.364,8.545 H 4.338 A 0.285,0.285 0 0 1 4.052,8.26 V 3.238 C 4.052,3.08 4.18,2.952 4.338,2.952 Z m 0.114,5.993 a 0.4,0.4 0 0 1 0.4,0.4 0.4,0.4 0 0 1 -0.4,0.4 0.4,0.4 0 0 1 -0.4,-0.4 0.4,0.4 0 0 1 0.4,-0.4 z m 1.199,0 a 0.4,0.4 0 0 1 0.4,0.4 0.4,0.4 0 0 1 -0.4,0.4 0.4,0.4 0 0 1 -0.4,-0.4 0.4,0.4 0 0 1 0.4,-0.4 z m 1.398,0 a 0.4,0.4 0 0 1 0.4,0.4 0.4,0.4 0 0 1 -0.4,0.4 0.4,0.4 0 0 1 -0.4,-0.4 0.4,0.4 0 0 1 0.4,-0.4 z m 1.2,0 a 0.4,0.4 0 0 1 0.4,0.4 0.4,0.4 0 0 1 -0.4,0.4 0.4,0.4 0 0 1 -0.4,-0.4 0.4,0.4 0 0 1 0.4,-0.4 z"
     id="path2"
     inkscape:connector-curvature="0"
     style="fill:#ff7f2a" />
</svg>

<svg xmlns="http://www.w3.org/2000/svg" width="48" height="48" viewBox="0 0 12.7 12.7"><path d="M6.34.07a6.29 6.29 0 0 0-6.29 6.3 6.29 6.29 0 0 0 6.3 6.28 6.29 6.29 0 0 0 6.28-6.29A6.29 6.29 0 0 0 6.34.07zm-.01.94a5.4 5.4 0 0 1 5.4 5.4 5.4 5.4 0 0 1-5.4 5.41 5.4 5.4 0 0 1-5.41-5.4A5.4 5.4 0 0 1 6.32 1zm-2.6 1.34c-.15 0-.27.13-.27.3v6.99c0 .16.12.3.27.3 0 0 1.31.4 2.62.4s2.62-.4 2.62-.4c.16 0 .28-.14.28-.3v-7c0-.16-.12-.29-.28-.29H3.73zm.61.6h4.02c.16 0 .29.13.29.29v5.02a.28.28 0 0 1-.29.28H4.34a.28.28 0 0 1-.29-.28V3.24c0-.16.13-.29.29-.29zm.11 6a.4.4 0 0 1 .4.4.4.4 0 0 1-.4.4.4.4 0 0 1-.4-.4.4.4 0 0 1 .4-.4zm1.2 0a.4.4 0 0 1 .4.4.4.4 0 0 1-.4.4.4.4 0 0 1-.4-.4.4.4 0 0 1 .4-.4zm1.4 0a.4.4 0 0 1 .4.4.4.4 0 0 1-.4.4.4.4 0 0 1-.4-.4.4.4 0 0 1 .4-.4zm1.2 0a.4.4 0 0 1 .4.4.4.4 0 0 1-.4.4.4.4 0 0 1-.4-.4.4.4 0 0 1 .4-.4z" fill="#ff7f2a"/></svg>
